remix/Media/image-add-line.svg

<svg viewBox="0 0 24 24" fill="currentColor" xmlns="http://www.w3.org/2000/svg"><path d="M21 15V18H24V20H21V23H19V20H16V18H19V15H21ZM21.0082 3C21.556 3 22 3.44495 22 3.9934V13H20V5H4V18.999L14 9L17 12V14.829L14 11.8284L6.827 19H14V21H2.9918C2.44405 21 2 20.5551 2 20.0066V3.9934C2 3.44476 2.45531 3 2.9918 3H21.0082ZM8 7C9.10457 7 10 7.89543 10 9C10 10.1046 9.10457 11 8 11C6.89543 11 6 10.1046 6 9C6 7.89543 6.89543 7 8 7Z"/></svg>

<svg viewBox="0 0 24 24" xmlns="http://www.w3.org/2000/svg"><path fill="none" d="M0 0h24v24H0Z"/><path d="M21 15v3h3v2h-3v3h-2v-3h-3v-2h3v-3h2Zm0-12c.54 0 .99.44.99.99v9.007h-2v-8h-16v13.99l10-10 3 3v2.82l-3-3L6.81 18.97h7.173v2H2.98v0c-.55-.01-1-.45-1-1V3.95v0c0-.55.44-.99.992-1h18.01ZM7.99 7v0c1.1 0 2 .89 2 2 0 1.1-.9 2-2 2v0c-1.11 0-2-.9-2-2 0-1.11.89-2 2-2Z"/></svg>
